X: 1
T: Ring The Banjo
R: polka
M: 2/4
L: 1/8
K: Dmaj
|:A2 dd|c/B/A dd|c/B/A dB/d|ed c2|BA B/c/d|ed cd|ed cA|Bc d2:|
|:df a2|gg f2|df aa|gf e2|cA B/c/d|ed cd|ed cA|Bc d2:|

